X: 6627
T: Cavers Of Kirkcudbright
R: jig
M: 6/8
K: Fmajor
"F"Fcc cAc-|cdc AGF|"/E"Fcc cAc|efe dcA|
"/D"Fcc cAc-|cdc AGF|"Bb"z BA GFD|z BA GFD:|
|:"Bb"dBB "C"ec"F"f-|fcc dcA|"Bb"dAB "C"ecf|"Dm"fga gfe|
"Bb"dBB "C"ec"F"f-|fcc dcA|"Bb"z BA GFD|z BA GFD:|

